X:1
%%titleformat R-P-Q-T C1 O1, T+T N1
T: Iridis Alpha: 12 of 100,000,000,000,000
T: Four 4-bar phrases from Voice 3.
L: 1/8
K: D % scale: C major
G1B,1^D1G1|g1B1^d1B,1|B1^D1G1^D1|^d1G1B1G1|
g1B1^d1g1|g'1b1^d'1B1|b1^d1g1^d1|^d'1g1b1B,1|
B1^D1G1B1|b1^d1g1^D1|^d1G1B1G1|g1B1^d1^D1|
^d1G1B1^d1|^d'1g1b1G1|g1B1^d1B1|b1^d1g1C,1|
